Numix-Circle/48x48/apps/calligrasheets.svg

<?xml version="1.0" encoding="UTF-8" standalone="no"?>
<svg
   xmlns:dc="http://purl.org/dc/elements/1.1/"
   xmlns:cc="http://creativecommons.org/ns#"
   xmlns:rdf="http://www.w3.org/1999/02/22-rdf-syntax-ns#"
   xmlns:svg="http://www.w3.org/2000/svg"
   xmlns="http://www.w3.org/2000/svg"
   xmlns:xlink="http://www.w3.org/1999/xlink"
   xmlns:sodipodi="http://sodipodi.sourceforge.net/DTD/sodipodi-0.dtd"
   xmlns:inkscape="http://www.inkscape.org/namespaces/inkscape"
   width="48"
   viewBox="0 0 13.546667 13.546667"
   height="48"
   id="svg2"
   version="1.1"
   inkscape:version="0.91 r13725"
   sodipodi:docname="calligrasheets.svg"
   inkscape:export-filename="/home/ismael/Imágenes/calligra/calligrasheets.png"
   inkscape:export-xdpi="245"
   inkscape:export-ydpi="245">
  <metadata
     id="metadata331">
    <rdf:RDF>
      <cc:Work
         rdf:about="">
        <dc:format>image/svg+xml</dc:format>
        <dc:type
           rdf:resource="http://purl.org/dc/dcmitype/StillImage" />
        <dc:title />
      </cc:Work>
    </rdf:RDF>
  </metadata>
  <sodipodi:namedview
     pagecolor="#ffffff"
     bordercolor="#666666"
     borderopacity="1"
     objecttolerance="10"
     gridtolerance="10"
     guidetolerance="10"
     inkscape:pageopacity="0"
     inkscape:pageshadow="2"
     inkscape:window-width="1366"
     inkscape:window-height="713"
     id="namedview329"
     showgrid="false"
     inkscape:zoom="12.085106"
     inkscape:cx="24.500001"
     inkscape:cy="23.499999"
     inkscape:window-x="0"
     inkscape:window-y="28"
     inkscape:window-maximized="1"
     inkscape:current-layer="layer3"
     showguides="false"
     inkscape:guide-bbox="true"
     inkscape:object-paths="true"
     inkscape:snap-intersection-paths="true"
     inkscape:snap-smooth-nodes="false"
     inkscape:object-nodes="true">
    <inkscape:grid
       type="xygrid"
       id="grid3308" />
  </sodipodi:namedview>
  <defs
     id="defs4">
    <linearGradient
       inkscape:collect="always"
       id="linearGradient4541">
      <stop
         style="stop-color:#dbd8e0;stop-opacity:1"
         offset="0"
         id="stop4543" />
      <stop
         style="stop-color:#d1ccd8;stop-opacity:1"
         offset="1"
         id="stop4545" />
    </linearGradient>
    <linearGradient
       inkscape:collect="always"
       xlink:href="#linearGradient4541"
       id="linearGradient4547"
       x1="-0.28222221"
       y1="6.7733335"
       x2="-13.264444"
       y2="6.7733335"
       gradientUnits="userSpaceOnUse" />
  </defs>
  <g
     inkscape:groupmode="layer"
     id="layer1"
     inkscape:label="Shadow"
     sodipodi:insensitive="true">
    <path
       style="opacity:0.05;fill:#000000;fill-opacity:1;stroke:none"
       d="M 25,2 C 12.297451,2 2,12.297451 2,25 2,31.367153 4.6007106,37.116628 8.78125,41.28125 12.865755,44.99361 18.29568,47.25 24.25,47.25 c 12.702549,0 23,-10.297451 23,-23 0,-5.95432 -2.25639,-11.384245 -5.96875,-15.46875 C 37.116628,4.6007105 31.367153,2 25,2 z M 41.28125,8.78125 C 45.135604,12.894061 47.5,18.418655 47.5,24.5 c 0,12.702549 -10.297451,23 -23,23 C 18.418655,47.5 12.894061,45.135604 8.78125,41.28125 12.940939,45.4251 18.664604,48 25,48 37.702549,48 48,37.702549 48,25 48,18.664604 45.4251,12.940939 41.28125,8.78125 z"
       transform="scale(0.28222223,0.28222223)"
       id="path3978"
       inkscape:connector-curvature="0" />
    <path
       style="opacity:0.1;fill:#000000;fill-opacity:1;stroke:none"
       d="M 41.28125,8.78125 C 44.99361,12.865755 47.25,18.29568 47.25,24.25 c 0,12.702549 -10.297451,23 -23,23 -5.95432,0 -11.384245,-2.25639 -15.46875,-5.96875 C 12.894061,45.135604 18.418655,47.5 24.5,47.5 c 12.702549,0 23,-10.297451 23,-23 0,-6.081345 -2.364396,-11.605939 -6.21875,-15.71875 z"
       transform="scale(0.28222223,0.28222223)"
       id="path3976"
       inkscape:connector-curvature="0" />
    <path
       transform="matrix(4.3274074,0,0,3.2455556,117.19278,-35.348334)"
       d="m -24,13 a 1.5,2 0 1 1 -3,0 1.5,2 0 1 1 3,0 z"
       sodipodi:ry="2"
       sodipodi:rx="1.5"
       sodipodi:cy="13"
       sodipodi:cx="-25.5"
       id="path3952"
       style="opacity:0.2;fill:#000000;fill-opacity:1;stroke:none"
       sodipodi:type="arc" />
  </g>
  <g
     inkscape:groupmode="layer"
     id="layer2"
     inkscape:label="Base">
    <circle
       style="fill:url(#linearGradient4547);fill-opacity:1;stroke:none"
       id="path3942"
       transform="matrix(0,-1,1,0,0,0)"
       cx="-6.7733335"
       cy="6.7733335"
       r="6.4911113" />
    <path
       style="opacity:0.1;fill:#000000;fill-opacity:1;stroke:none"
       d="M 40.03125 7.53125 C 43.74361 11.615755 46 17.04568 46 23 C 46 35.702549 35.702549 46 23 46 C 17.04568 46 11.615755 43.74361 7.53125 40.03125 C 11.709416 44.322508 17.537578 47 24 47 C 36.702549 47 47 36.702549 47 24 C 47 17.537578 44.322508 11.709416 40.03125 7.53125 z "
       transform="scale(0.28222223,0.28222223)"
       id="path4027" />
    <path
       style="color:#000000;font-style:normal;font-variant:normal;font-weight:normal;font-stretch:normal;font-size:medium;line-height:normal;font-family:sans-serif;text-indent:0;text-align:start;text-decoration:none;text-decoration-line:none;text-decoration-style:solid;text-decoration-color:#000000;letter-spacing:normal;word-spacing:normal;text-transform:none;direction:ltr;block-progression:tb;writing-mode:lr-tb;baseline-shift:baseline;text-anchor:start;white-space:normal;clip-rule:nonzero;display:inline;overflow:visible;visibility:visible;opacity:0.6;isolation:auto;mix-blend-mode:normal;color-interpolation:sRGB;color-interpolation-filters:linearRGB;solid-color:#000000;solid-opacity:1;fill:#1a1a1a;fill-opacity:1;fill-rule:nonzero;stroke:none;stroke-width:0.56444442;stroke-linecap:butt;stroke-linejoin:miter;stroke-miterlimit:4;stroke-dasharray:none;stroke-dashoffset:0;stroke-opacity:1;color-rendering:auto;image-rendering:auto;shape-rendering:auto;text-rendering:auto;enable-background:accumulate"
       d="m 7.1768186,2.505818 c -2.334836,10e-8 -4.2333335,1.8984978 -4.2333334,4.2333332 0,2.3348357 1.8984974,4.2333338 4.2333334,4.2333338 1.3658028,0 2.5785357,-0.652554 3.3530424,-1.6591584 l -0.6906728,0 C 9.1661124,10.009414 8.2237637,10.443318 7.1768186,10.443318 c -2.0488574,0 -3.7041666,-1.6553094 -3.7041666,-3.7041668 0,-2.0488571 1.6553092,-3.7041666 3.7041666,-3.7041666 1.0802922,0 2.0481393,0.4629144 2.7246569,1.1983421 l 0.6796485,0 C 9.8096626,3.1879784 8.573212,2.505818 7.1768186,2.505818 Z"
       id="path4522"
       inkscape:connector-curvature="0" />
  </g>
  <g
     inkscape:groupmode="layer"
     id="layer3"
     inkscape:label="Symbol">
    <path
       id="path3424"
       d="M 10.124722,3.9511111 4.2333334,3.9775694 4.2686112,10.16 10.16,10.133542 10.124722,3.9511111 z M 4.7536807,4.5155555 a 0.20909959,0.2087352 0 0 1 0.00882,0 0.20909959,0.2087352 0 0 1 0.035278,0 A 0.20909959,0.2087352 0 0 1 5.0094446,4.7272222 0.20909959,0.2087352 0 0 1 4.7977779,4.9300695 0.20909959,0.2087352 0 0 1 4.5861112,4.7272222 0.20909959,0.2087352 0 0 1 4.7536807,4.5155555 z m 0,1.1641667 a 0.20909959,0.2087352 0 0 1 0.026458,0 0.20909959,0.2087352 0 0 1 0.017639,0 A 0.20909959,0.2087352 0 0 1 5.0094446,5.8913889 0.20909959,0.2087352 0 0 1 4.7977779,6.1030556 0.20909959,0.2087352 0 0 1 4.5861112,5.8913889 0.20909959,0.2087352 0 0 1 4.7536807,5.6797222 z m 0,1.1641667 a 0.2090996,0.20873521 0 0 1 0.026458,0 0.2090996,0.20873521 0 0 1 0.017639,0 A 0.2090996,0.20873521 0 0 1 5.0094446,7.0555556 0.2090996,0.20873521 0 0 1 4.7977779,7.2672223 0.2090996,0.20873521 0 0 1 4.5861112,7.0555556 0.2090996,0.20873521 0 0 1 4.7536807,6.8438889 z m 0,1.1641667 a 0.2090996,0.20873521 0 0 1 0.044097,0 A 0.2090996,0.20873521 0 0 1 5.0094446,8.2197223 0.2090996,0.20873521 0 0 1 4.7977779,8.4313891 0.2090996,0.20873521 0 0 1 4.5861112,8.2197223 0.2090996,0.20873521 0 0 1 4.7536807,8.0080556 z m 0.00882,1.1729863 a 0.2090996,0.20873521 0 0 1 0.035278,0 A 0.2090996,0.20873521 0 0 1 5.0094446,9.383889 0.2090996,0.20873521 0 0 1 4.7977779,9.5955557 0.2090996,0.20873521 0 0 1 4.5861112,9.383889 0.2090996,0.20873521 0 0 1 4.7625001,9.1810419 z"
       style="opacity:0.1;fill:#000000;fill-opacity:1;fill-rule:nonzero;stroke:none"
       inkscape:connector-curvature="0" />
    <path
       style="fill:#f9f9f9;fill-opacity:1;fill-rule:nonzero;stroke:none"
       d="M 34.875 13 L 14 13.09375 L 14.125 35 L 35 34.90625 L 34.875 13 z M 15.84375 15 A 0.74090404 0.7396129 0 0 1 15.875 15 A 0.74090404 0.7396129 0 0 1 16 15 A 0.74090404 0.7396129 0 0 1 16.75 15.75 A 0.74090404 0.7396129 0 0 1 16 16.46875 A 0.74090404 0.7396129 0 0 1 15.25 15.75 A 0.74090404 0.7396129 0 0 1 15.84375 15 z M 15.84375 19.125 A 0.74090404 0.7396129 0 0 1 15.9375 19.125 A 0.74090404 0.7396129 0 0 1 16 19.125 A 0.74090404 0.7396129 0 0 1 16.75 19.875 A 0.74090404 0.7396129 0 0 1 16 20.625 A 0.74090404 0.7396129 0 0 1 15.25 19.875 A 0.74090404 0.7396129 0 0 1 15.84375 19.125 z M 15.84375 23.25 A 0.74090408 0.73961293 0 0 1 15.9375 23.25 A 0.74090408 0.73961293 0 0 1 16 23.25 A 0.74090408 0.73961293 0 0 1 16.75 24 A 0.74090408 0.73961293 0 0 1 16 24.75 A 0.74090408 0.73961293 0 0 1 15.25 24 A 0.74090408 0.73961293 0 0 1 15.84375 23.25 z M 15.84375 27.375 A 0.74090408 0.73961293 0 0 1 16 27.375 A 0.74090408 0.73961293 0 0 1 16.75 28.125 A 0.74090408 0.73961293 0 0 1 16 28.875 A 0.74090408 0.73961293 0 0 1 15.25 28.125 A 0.74090408 0.73961293 0 0 1 15.84375 27.375 z M 15.875 31.53125 A 0.74090408 0.73961293 0 0 1 16 31.53125 A 0.74090408 0.73961293 0 0 1 16.75 32.25 A 0.74090408 0.73961293 0 0 1 16 33 A 0.74090408 0.73961293 0 0 1 15.25 32.25 A 0.74090408 0.73961293 0 0 1 15.875 31.53125 z "
       id="path3399"
       transform="scale(0.28222223,0.28222223)" />
    <g
       id="g4633">
      <path
         sodipodi:nodetypes="cccccccccc"
         inkscape:connector-curvature="0"
         id="path4540"
         d="m 5.0800001,4.5155555 -1e-7,4.5155557 4.5155556,0 0,-4.5155557 z m 0.2822222,0.2822223 3.9511111,0 0,3.9511111 -3.9511111,0 z"
         style="fill:#999999;fill-rule:evenodd;stroke:none;stroke-width:0.28222221px;stroke-linecap:butt;stroke-linejoin:miter;stroke-opacity:1" />
      <path
         sodipodi:nodetypes="ccccc"
         inkscape:connector-curvature="0"
         id="path4550"
         d="m 5.08,5.3622223 4.5155556,0 0,0.2822222 -4.5155556,0 z"
         style="fill:#999999;fill-rule:evenodd;stroke:none;stroke-width:0.28222221px;stroke-linecap:butt;stroke-linejoin:miter;stroke-opacity:1" />
      <path
         style="fill:#999999;fill-rule:evenodd;stroke:none;stroke-width:0.28222221px;stroke-linecap:butt;stroke-linejoin:miter;stroke-opacity:1"
         d="m 6.7733334,4.5155556 0,4.5155556 -0.2822222,0 0,-4.5155556 z"
         id="path4552"
         inkscape:connector-curvature="0" />
      <path
         inkscape:connector-curvature="0"
         id="path4554"
         d="m 8.1844445,4.5155556 0,4.5155556 -0.2822222,0 0,-4.5155556 z"
         style="fill:#999999;fill-rule:evenodd;stroke:none;stroke-width:0.28222221px;stroke-linecap:butt;stroke-linejoin:miter;stroke-opacity:1" />
      <path
         sodipodi:nodetypes="ccccc"
         style="fill:#999999;fill-rule:evenodd;stroke:none;stroke-width:0.28222221px;stroke-linecap:butt;stroke-linejoin:miter;stroke-opacity:1"
         d="m 5.08,6.2088889 4.5155556,0 0,0.2822222 -4.5155556,0 z"
         id="path4558"
         inkscape:connector-curvature="0" />
      <path
         sodipodi:nodetypes="ccccc"
         inkscape:connector-curvature="0"
         id="path4560"
         d="m 5.08,7.0555556 4.5155556,0 0,0.2822222 -4.5155556,0 z"
         style="fill:#999999;fill-rule:evenodd;stroke:none;stroke-width:0.28222221px;stroke-linecap:butt;stroke-linejoin:miter;stroke-opacity:1" />
      <path
         sodipodi:nodetypes="ccccc"
         style="fill:#999999;fill-rule:evenodd;stroke:none;stroke-width:0.28222221px;stroke-linecap:butt;stroke-linejoin:miter;stroke-opacity:1"
         d="m 5.08,7.9022223 4.5155556,0 0,0.2822222 -4.5155556,0 z"
         id="path4562"
         inkscape:connector-curvature="0" />
      <path
         inkscape:connector-curvature="0"
         id="rect4575"
         d="m 6.7733334,5.6444445 1.1288889,0 0,0.5644444 -1.1288889,0 z"
         style="opacity:1;fill:#87deaa;fill-opacity:1;fill-rule:nonzero;stroke:none;stroke-width:0.30000001;stroke-miterlimit:4;stroke-dasharray:none;stroke-opacity:1" />
      <path
         style="opacity:1;fill:#87deaa;fill-opacity:1;fill-rule:nonzero;stroke:none;stroke-width:0.30000001;stroke-miterlimit:4;stroke-dasharray:none;stroke-opacity:1"
         d="m 6.7733334,6.4911111 1.1288889,0 0,0.5644444 -1.1288889,0 z"
         id="path4578"
         inkscape:connector-curvature="0" />
      <path
         sodipodi:nodetypes="ccccc"
         inkscape:connector-curvature="0"
         id="path4580"
         d="m 6.7733334,7.3377779 1.1288889,-1e-7 0,0.5644445 -1.1288889,0 z"
         style="opacity:1;fill:#87deaa;fill-opacity:1;fill-rule:nonzero;stroke:none;stroke-width:0.30000001;stroke-miterlimit:4;stroke-dasharray:none;stroke-opacity:1" />
      <path
         style="opacity:1;fill:#87deaa;fill-opacity:1;fill-rule:nonzero;stroke:none;stroke-width:0.30000001;stroke-miterlimit:4;stroke-dasharray:none;stroke-opacity:1"
         d="m 5.3622223,5.6444445 1.1288889,0 0,0.5644444 -1.1288889,0 z"
         id="path4582"
         inkscape:connector-curvature="0" />
    </g>
  </g>
</svg>

<svg xmlns="http://www.w3.org/2000/svg" width="48" viewBox="0 0 13.546667 13.546667" height="48">
 <defs>
  <linearGradient id="linearGradient4547" x1="-0.282" x2="-13.264" gradientUnits="userSpaceOnUse">
   <stop style="stop-color:#dbd8e0;stop-opacity:1"/>
   <stop offset="1" style="stop-color:#d1ccd8;stop-opacity:1"/>
  </linearGradient>
 </defs>
 <g>
  <path d="m 25 2 c -12.703 0 -23 10.297 -23 23 0 6.367 2.601 12.12 6.781 16.281 4.085 3.712 9.514 5.969 15.469 5.969 c 12.703 0 23 -10.297 23 -23 0 -5.954 -2.256 -11.384 -5.969 -15.469 c -4.165 -4.181 -9.914 -6.781 -16.281 -6.781 z m 16.281 6.781 c 3.854 4.113 6.219 9.637 6.219 15.719 c 0 12.703 -10.297 23 -23 23 c -6.081 0 -11.606 -2.364 -15.719 -6.219 4.16 4.144 9.883 6.719 16.219 6.719 12.703 0 23 -10.297 23 -23 0 -6.335 -2.575 -12.06 -6.719 -16.219 z" transform="scale(0.28222223,0.28222223)" style="fill:#000;opacity:0.05;fill-opacity:1;stroke:none"/>
  <path d="m 41.28 8.781 c 3.712 4.085 5.969 9.514 5.969 15.469 c 0 12.703 -10.297 23 -23 23 -5.954 0 -11.384 -2.256 -15.469 -5.969 c 4.113 3.854 9.637 6.219 15.719 6.219 c 12.703 0 23 -10.297 23 -23 0 -6.081 -2.364 -11.606 -6.219 -15.719 z" transform="scale(0.28222223,0.28222223)" style="fill:#000;opacity:0.1;fill-opacity:1;stroke:none"/>
  <path transform="matrix(4.3274074,0,0,3.2455556,117.19278,-35.348334)" d="m -24 13 a 1.5 2 0 1 1 -3 0 1.5 2 0 1 1 3 0 z" style="fill:#000;opacity:0.2;fill-opacity:1;stroke:none"/>
 </g>
 <g>
  <circle transform="matrix(0,-1,1,0,0,0)" cx="-6.773" cy="6.773" r="6.491" style="fill:url(#linearGradient4547);fill-opacity:1;stroke:none"/>
  <path d="m 40.03 7.531 c 3.712 4.085 5.969 9.514 5.969 15.469 c 0 12.703 -10.297 23 -23 23 c -5.954 0 -11.384 -2.256 -15.469 -5.969 c 4.178 4.291 10.01 6.969 16.469 6.969 c 12.703 0 23 -10.297 23 -23 c 0 -6.462 -2.677 -12.291 -6.969 -16.469 z" transform="scale(0.28222223,0.28222223)" style="fill:#000;opacity:0.1;fill-opacity:1;stroke:none"/>
  <path d="m 7.177 2.506 c -2.335 0 -4.233 1.898 -4.233 4.233 0 2.335 1.898 4.233 4.233 4.233 1.366 0 2.579 -0.653 3.353 -1.659 l -0.691 0 c -0.673 0.696 -1.615 1.13 -2.662 1.13 c -2.049 0 -3.704 -1.655 -3.704 -3.704 0 -2.049 1.655 -3.704 3.704 -3.704 1.08 0 2.048 0.463 2.725 1.198 l 0.68 0 c -0.771 -1.045 -2.01 -1.728 -3.404 -1.728" mix-blend-mode="normal" isolation="auto" white-space="normal" solid-opacity="1" solid-color="#000000" style="visibility:visible;shape-rendering:auto;color-interpolation-filters:linearRGB;fill:#1a1a1a;opacity:0.6;image-rendering:auto;fill-opacity:1;stroke:none;display:inline;color:#000;fill-rule:nonzero;color-rendering:auto;color-interpolation:sRGB"/>
 </g>
 <g>
  <path d="m 10.16 3.951 -5.927 0 0 6.209 5.927 0 z m -5.406 0.564 0.009 0 c 0.012 0 0.024 0 0.035 0 0.118 0 0.213 0.094 0.212 0.212 c -0.003 0.114 -0.097 0.204 -0.212 0.203 -0.114 0 -0.208 -0.089 -0.212 -0.203 -0.003 -0.102 0.067 -0.191 0.168 -0.212 m 0 1.164 c 0.009 0 0.018 0 0.026 0 0.006 0 0.012 0 0.018 0 0.118 0 0.213 0.094 0.212 0.212 0.002 0.117 -0.094 0.213 -0.212 0.212 -0.118 0 -0.213 -0.094 -0.212 -0.212 -0.003 -0.102 0.067 -0.191 0.168 -0.212 z m 0 1.164 c 0.009 0 0.018 0 0.026 0 0.006 0 0.012 0 0.018 0 0.118 0 0.213 0.094 0.212 0.212 0.002 0.117 -0.094 0.213 -0.212 0.212 c -0.118 0 -0.213 -0.094 -0.212 -0.212 -0.003 -0.102 0.067 -0.191 0.168 -0.212 m 0 1.164 c 0.015 -0.002 0.029 -0.002 0.044 0 0.118 0 0.213 0.094 0.212 0.212 c 0.002 0.117 -0.094 0.213 -0.212 0.212 -0.118 0 -0.213 -0.094 -0.212 -0.212 -0.003 -0.102 0.067 -0.191 0.168 -0.212 m 0.009 1.173 c 0.012 0 0.024 0 0.035 0 0.114 0 0.208 0.089 0.212 0.203 0.002 0.117 -0.094 0.213 -0.212 0.212 -0.118 0 -0.213 -0.094 -0.212 -0.212 0.002 -0.101 0.076 -0.187 0.176 -0.203 z" style="fill:#000;opacity:0.1;fill-opacity:1;stroke:none;fill-rule:nonzero"/>
  <g>
   <g>
    <path transform="scale(0.28222223,0.28222223)" d="m 35 13 -21 0 0 22 21 0 z m -19.16 2 c 0.0001 0 0.021 0 0.031 0 0.042 -0.004 0.083 -0.004 0.125 0 0.417 -0.005 0.756 0.334 0.75 0.75 -0.011 0.404 -0.345 0.724 -0.75 0.719 -0.405 0.005 -0.739 -0.315 -0.75 -0.719 -0.012 -0.361 0.239 -0.678 0.594 -0.75 z m 0 4.125 c 0.031 -0.002 0.063 -0.002 0.094 0 0.021 0 0.042 0 0.063 0 0.417 -0.005 0.756 0.334 0.75 0.75 0.006 0.416 -0.333 0.755 -0.75 0.75 -0.417 0.005 -0.756 -0.334 -0.75 -0.75 -0.012 -0.361 0.239 -0.678 0.594 -0.75 z m 0 4.125 c 0.031 -0.002 0.063 -0.002 0.094 0 0.021 0 0.042 0 0.063 0 0.417 -0.005 0.756 0.334 0.75 0.75 0.006 0.416 -0.333 0.755 -0.75 0.75 -0.417 0.005 -0.756 -0.334 -0.75 -0.75 -0.012 -0.361 0.239 -0.678 0.594 -0.75 z m 0 4.125 c 0.052 -0.006 0.104 -0.006 0.156 0 0.417 -0.005 0.756 0.334 0.75 0.75 0.006 0.416 -0.333 0.755 -0.75 0.75 -0.417 0.005 -0.756 -0.334 -0.75 -0.75 -0.012 -0.361 0.239 -0.678 0.594 -0.75 z m 0.031 4.156 c 0.042 -0.003 0.083 -0.003 0.125 0 0.405 -0.005 0.739 0.315 0.75 0.719 0.006 0.416 -0.333 0.755 -0.75 0.75 -0.417 0.005 -0.756 -0.334 -0.75 -0.75 0.006 -0.359 0.269 -0.663 0.625 -0.719 z" style="fill:#f9f9f9;fill-opacity:1;stroke:none;fill-rule:nonzero"/>
    <path d="m 6.773 5.644 1.129 0 0 2.258 -1.129 0 z" style="fill:#87deaa;opacity:1;fill-opacity:1;stroke:none;fill-rule:nonzero"/>
    <path transform="scale(0.28222223,0.28222223)" d="m 18 16 c 0 5.333 0 10.667 0 16 5.333 0 10.667 0 16 0 0 -5.333 0 -10.667 0 -16 -5.333 0 -10.667 0 -16 0 z m 1 1 4 0 0 2 -4 0 z m 5 0 4 0 0 2 -4 0 z m 5 0 4 0 0 2 -4 0 z m -10 3 4 0 0 2 -4 0 z m 5 0 4 0 0 2 -4 0 z m 5 0 4 0 0 2 -4 0 z m -10 3 4 0 0 2 -4 0 z m 5 0 4 0 0 2 -4 0 z m 5 0 4 0 0 2 -4 0 z m -10 3 4 0 0 2 -4 0 z m 5 0 4 0 0 2 -4 0 z m 5 0 4 0 0 2 -4 0 z m -10 3 4 0 0 2 -4 0 z m 5 0 4 0 0 2 -4 0 z m 5 0 4 0 0 2 -4 0 z" style="fill:#999;stroke:none;fill-rule:evenodd"/>
    <path d="m 5.362 5.644 1.129 0 0 0.564 -1.129 0 z" style="fill:#87deaa;opacity:1;fill-opacity:1;stroke:none;fill-rule:nonzero"/>
   </g>
  </g>
 </g>
</svg>
